modules/coreui-icons-brand/icons/creative-commons-pd-alt.svg

<svg version="1.1" xmlns="http://www.w3.org/2000/svg" width="32" height="32" viewBox="0 0 32 32">
<title>creative-commons-pd-alt</title>
<path d="M15.975 0.5c-8.931 0-15.475 7.194-15.475 15.5 0 8.656 7.1 15.5 15.475 15.5 8.119 0 15.525-6.306 15.525-15.5 0-8.619-6.663-15.5-15.525-15.5zM16.025 28.675c-7.031 0-12.731-5.813-12.731-12.675 0-6.587 5.344-12.706 12.731-12.706 7.038 0 12.681 5.594 12.675 12.706 0 7.606-6.225 12.675-12.675 12.675zM20.294 11.625h-3.325v8.575h3.325c1.338 0 4.375-0.319 4.375-4.287 0-3.963-3.037-4.288-4.375-4.288zM20.344 18.406h-1.244v-4.981l1.212-0.006c0.238 0 2.188-0.131 2.188 2.494 0 1.537-0.656 2.494-2.156 2.494zM13.231 11.625h-4.262v8.581h2.163v-2.769h1.688c3.381 0 3.569-2.344 3.569-2.906 0-1.938-1.050-2.906-3.156-2.906zM12.925 15.831h-1.825v-2.6h1.769c1.931 0 1.8 2.6 0.056 2.6z"></path>
</svg>

<svg xmlns="http://www.w3.org/2000/svg" width="32" height="32" viewBox="0 0 32 32"><path d="M15.975.5C7.044.5.5 7.694.5 16c0 8.656 7.1 15.5 15.475 15.5C24.094 31.5 31.5 25.194 31.5 16 31.5 7.381 24.837.5 15.975.5zm.05 28.175C8.994 28.675 3.294 22.862 3.294 16c0-6.587 5.344-12.706 12.731-12.706C23.063 3.294 28.706 8.888 28.7 16c0 7.606-6.225 12.675-12.675 12.675zm4.269-17.05h-3.325V20.2h3.325c1.338 0 4.375-.319 4.375-4.287 0-3.963-3.037-4.288-4.375-4.288zm.05 6.781H19.1v-4.981l1.212-.006c.238 0 2.188-.131 2.188 2.494 0 1.537-.656 2.494-2.156 2.494zm-7.113-6.781H8.969v8.581h2.163v-2.769h1.688c3.381 0 3.569-2.344 3.569-2.906 0-1.938-1.05-2.906-3.156-2.906zm-.306 4.206H11.1v-2.6h1.769c1.931 0 1.8 2.6.056 2.6z"/></svg>
